X:60
T:Gravel Walk, The
T:Gravel Walks, The
R:reel
H:Belongs to the "Highlander Kissed His Granny" family.
H:Other related tunes are "John Stenson's #1" #392
H:"The Jolly Seven" #559, "The Highlandman That Kissed His Granny" #567,
H:"The Highlandman" highland#10
D:Paddy Glackin: Ceol ar an bhFidil le Paddy Glackin.
D:Matt Molloy: Stony Steps.
Z:The last part is sometimes singled. See also Jenny's Chickens, #75
Z:id:hn-reel-60
M:C|
K:Ador
A2eA (3cBA eA|(3cBA eA BAGB|A2eA (3Bcd ef|gedc BAGB:|
|:~A2aA gAfA|~A2ed BAGB|1~A2aA gAfa|gedc BAGB:|2 ABcd egfa|gedc BAGB||
|:cAAG ~A3B|cA~A2 BGBd|cAAG ~A2ef|gfge dBGB:|
|:~c2gc acgc|~c2gc BAGB|~c2gc acga|gedc BAGB|
~c2gc acgc|~c2gc BAGB|1ABcd egfa|gedc BAGB:|2Aa~a2 agef|gedc BAGB||
